X: 572
M: C|
L: 1/8
K: Amix
V: 1
e |\
g |\
a>bag egab | g>age dBGg |
a>bag egab | gegB A/A/A Ag |\
a>bag egab | gage dBGg |\
afge fdec | dBgB A/A/A A |]
V: 2 clef=bass middle=d
z |\
a2a2 a2a2 | g2g2 g2g2 |\
a2a2 a2a2 | e2e2 A2A :|\
z |\
a2a2 a2a2 | g2g2 g2g2 |
a2a2 a2a2 | e2e2 A2A2 |\
a2a2 a2a2 | g2g2 g2g2 |
a2a2 a2a2 | e2e2 A2A |]

